X:10628
T:McKenna's #1
T:Colonel McRory's
R:reel
Z:id:hn-reel-242
M:C|
K:G
G2dB cAFA|GABc dBcA|GBdB cAFA|GBAF GFED|
GBdB cAFA|GABc defg|afge fdcA|1 GBAF G3D:|2 GBAF G2ag||
|:fdde fdcA|dggf gbag|fdde fdcA|GBAF G2ag|
fdde fdcA|dggf gbag|fdde fdcA|1 GBAF G2ag:|2 GBAF GDEF||
